source/images/recommended.svg

<?xml version="1.0" encoding="UTF-8"?>
<svg width="400px" height="532px" viewBox="0 0 400 532" version="1.1" xmlns="http://www.w3.org/2000/svg" xmlns:xlink="http://www.w3.org/1999/xlink">
    <!-- Generator: Sketch 41.2 (35397) - http://www.bohemiancoding.com/sketch -->
    <title>recommended</title>
    <desc>Created with Sketch.</desc>
    <defs>
        <filter x="-50%" y="-50%" width="200%" height="200%" filterUnits="objectBoundingBox" id="filter-1">
            <feGaussianBlur stdDeviation="20" in="SourceGraphic"></feGaussianBlur>
        </filter>
        <rect id="path-2" x="180" y="96" width="168" height="36"></rect>
        <mask id="mask-3" maskContentUnits="userSpaceOnUse" maskUnits="objectBoundingBox" x="0" y="0" width="168" height="36" fill="white">
            <use xlink:href="#path-2"></use>
        </mask>
        <filter x="-50%" y="-50%" width="200%" height="200%" filterUnits="objectBoundingBox" id="filter-4">
            <feGaussianBlur stdDeviation="20" in="SourceGraphic"></feGaussianBlur>
        </filter>
        <rect id="path-5" x="180" y="252" width="168" height="36"></rect>
        <mask id="mask-6" maskContentUnits="userSpaceOnUse" maskUnits="objectBoundingBox" x="0" y="0" width="168" height="36" fill="white">
            <use xlink:href="#path-5"></use>
        </mask>
        <filter x="-50%" y="-50%" width="200%" height="200%" filterUnits="objectBoundingBox" id="filter-7">
            <feGaussianBlur stdDeviation="20" in="SourceGraphic"></feGaussianBlur>
        </filter>
        <rect id="path-8" x="180" y="408" width="168" height="36"></rect>
        <mask id="mask-9" maskContentUnits="userSpaceOnUse" maskUnits="objectBoundingBox" x="0" y="0" width="168" height="36" fill="white">
            <use xlink:href="#path-8"></use>
        </mask>
    </defs>
    <g id="Landing-page" stroke="none" stroke-width="1" fill="none" fill-rule="evenodd">
        <g id="Desktop-HD" transform="translate(-250.000000, -676.000000)">
            <g id="recommended" transform="translate(270.000000, 708.000000)">
                <rect id="Rectangle" fill-opacity="0.2" fill="#446691" filter="url(#filter-1)" x="24" y="12" width="312" height="132" rx="24"></rect>
                <rect id="Rectangle" fill="#FFFFFF" x="12" y="0" width="336" height="96" rx="6"></rect>
                <text id="Echocardiography" font-family="Europa-Bold, Europa" font-size="18" font-weight="bold" line-spacing="24" fill="#535B6F">
                    <tspan x="36" y="31">Echocardiography</tspan>
                </text>
                <text id="Your-blood-pressure" font-family="Europa-Regular, Europa" font-size="18" font-weight="normal" line-spacing="24" fill="#858B99">
                    <tspan x="36" y="55">Your blood pressure has been pretty </tspan>
                    <tspan x="36" y="79">high lately. How about you…</tspan>
                </text>
                <rect id="Rectangle-8" fill="#FFA69E" x="12" y="96" width="168" height="36"></rect>
                <use id="Rectangle-8" stroke="#FFA69E" mask="url(#mask-3)" stroke-width="4" fill="#FFFFFF" xlink:href="#path-2"></use>
                <text id="Accept" font-family="Europa-Regular, Europa" font-size="18" font-weight="normal" line-spacing="24" fill="#FFFFFF">
                    <tspan x="68.595" y="121">Accept</tspan>
                </text>
                <text id="Ignore" font-family="Europa-Regular, Europa" font-size="18" font-weight="normal" line-spacing="24" fill="#FFA69E">
                    <tspan x="239" y="121">Ignore</tspan>
                </text>
                <g id="Group-3" transform="translate(0.000000, 24.000000)">
                    <path d="M12,24 C18.627417,24 24,18.627417 24,12 C24,5.372583 18.627417,0 12,0 C5.372583,0 0,5.372583 0,12 C0,18.627417 5.372583,24 12,24 Z M11.9999484,8.06699697 C10.1636286,4.62938592 5,5.63292399 5,9.94043772 C5,12.9065068 8.24972607,15.9393935 11.9999484,20 C15.7507542,15.9393935 18.9998969,12.9065068 18.9998969,9.94043772 C18.9998969,5.61828773 13.8228517,4.65484028 11.9999484,8.06699697 Z" id="Combined-Shape" fill="#858B99"></path>
                    <path d="M11.9999484,8.06699697 C10.1636286,4.62938592 5,5.63292399 5,9.94043772 C5,12.9065068 8.24972607,15.9393935 11.9999484,20 C15.7507542,15.9393935 18.9998969,12.9065068 18.9998969,9.94043772 C18.9998969,5.61828773 13.8228517,4.65484028 11.9999484,8.06699697 Z" id="Shape" fill="#FFFFFF"></path>
                </g>
                <rect id="Rectangle" fill-opacity="0.2" fill="#446691" filter="url(#filter-4)" x="24" y="168" width="312" height="132" rx="24"></rect>
                <rect id="Rectangle" fill="#FFFFFF" x="12" y="156" width="336" height="96" rx="6"></rect>
                <text id="Pulmonary-Function-T" font-family="Europa-Bold, Europa" font-size="18" font-weight="bold" line-spacing="24" fill="#535B6F">
                    <tspan x="36" y="187">Pulmonary Function Test</tspan>
                </text>
                <text id="Seeing-as-you-are-a" font-family="Europa-Regular, Europa" font-size="18" font-weight="normal" line-spacing="24" fill="#858B99">
                    <tspan x="36" y="211">Seeing as you are a smoker, you </tspan>
                    <tspan x="36" y="235">should get your lungs checked.</tspan>
                </text>
                <rect id="Rectangle-8" fill="#FFA69E" x="12" y="252" width="168" height="36"></rect>
                <use id="Rectangle-8" stroke="#FFA69E" mask="url(#mask-6)" stroke-width="4" fill="#FFFFFF" xlink:href="#path-5"></use>
                <text id="Accept" font-family="Europa-Regular, Europa" font-size="18" font-weight="normal" line-spacing="24" fill="#FFFFFF">
                    <tspan x="68.595" y="277">Accept</tspan>
                </text>
                <text id="Ignore" font-family="Europa-Regular, Europa" font-size="18" font-weight="normal" line-spacing="24" fill="#FFA69E">
                    <tspan x="239" y="277">Ignore</tspan>
                </text>
                <rect id="Rectangle" fill-opacity="0.2" fill="#446691" filter="url(#filter-7)" x="24" y="324" width="312" height="132" rx="24"></rect>
                <rect id="Rectangle" fill="#FFFFFF" x="12" y="312" width="336" height="96" rx="6"></rect>
                <text id="Dental-Appointment" font-family="Europa-Bold, Europa" font-size="18" font-weight="bold" line-spacing="24" fill="#535B6F">
                    <tspan x="36" y="343">Dental Appointment</tspan>
                </text>
                <text id="It’s-been-a-while-si" font-family="Europa-Regular, Europa" font-size="18" font-weight="normal" line-spacing="24" fill="#858B99">
                    <tspan x="36" y="367">It’s been a while since you’ve gone to </tspan>
                    <tspan x="36" y="391">the dentist. I would advise you…</tspan>
                </text>
                <rect id="Rectangle-8" fill="#FFA69E" x="12" y="408" width="168" height="36"></rect>
                <use id="Rectangle-8" stroke="#FFA69E" mask="url(#mask-9)" stroke-width="4" fill="#FFFFFF" xlink:href="#path-8"></use>
                <text id="Accept" font-family="Europa-Regular, Europa" font-size="18" font-weight="normal" line-spacing="24" fill="#FFFFFF">
                    <tspan x="68.595" y="433">Accept</tspan>
                </text>
                <text id="Ignore" font-family="Europa-Regular, Europa" font-size="18" font-weight="normal" line-spacing="24" fill="#FFA69E">
                    <tspan x="239" y="433">Ignore</tspan>
                </text>
                <path d="M12,360 C18.627417,360 24,354.627417 24,348 C24,341.372583 18.627417,336 12,336 C5.372583,336 0,341.372583 0,348 C0,354.627417 5.372583,360 12,360 Z M16.6652738,347.213853 C16.6652738,347.213853 16.1666981,348.256475 16.1666981,349.897341 C16.1666981,351.115977 15.7118893,353.710092 15.1481968,354.863444 C14.8885009,355.372862 14.1299921,355.284339 13.9568813,354.730507 C13.4148351,352.801197 13.0249651,347.967667 12.0060487,347.989873 C10.9659012,347.967667 10.5970844,352.801197 10.0559278,354.730507 C9.88257979,355.284339 9.12430817,355.372862 8.86366342,354.863444 C8.27897705,353.710092 7.82351591,351.115977 7.82351591,349.897341 C7.82351591,348.256475 7.32559251,347.213853 7.32559251,347.213853 C6.63220038,345.751126 6.56708367,344.154855 6.6104355,343.157193 C6.65384664,342.580487 6.95671644,341.870905 7.23906676,341.538715 C7.5204089,341.205615 8.04098674,340.895693 8.38720837,340.829133 C8.75543209,340.784781 9.49223537,340.784781 10.0559278,340.873486 L12.0060487,341.139177 L13.9568813,340.873486 C14.4981565,340.784781 15.2567247,340.784781 15.6036579,340.829133 C15.9718224,340.895693 16.492163,341.205615 16.7735051,341.538715 C17.0551438,341.870905 17.3591404,342.580487 17.3806087,343.157193 C17.4454882,344.154855 17.3806087,345.751126 16.6652738,347.213853 Z" id="Combined-Shape" fill="#858B99"></path>
                <path d="M12,204 C18.627417,204 24,198.627417 24,192 C24,185.372583 18.627417,180 12,180 C5.372583,180 0,185.372583 0,192 C0,198.627417 5.372583,204 12,204 Z M19.1742633,194.165956 C19.1742633,191.411433 16.2236671,186.929547 14.410797,186.929547 C13.5456558,186.929547 13.0898433,187.955742 12.8560702,189.322876 C12.7152647,189.151683 12.6326769,189.019551 12.5582125,188.928408 L12.5582125,185.416296 C12.5582125,185.075838 12.3172186,184.8 11.9990524,184.8 C11.6808863,184.8 11.4398923,185.075838 11.4398923,185.416296 L11.4398923,189.007012 C11.3654279,189.167114 11.2715576,189.313714 11.1564762,189.453562 C10.9267648,188.044473 10.4741114,186.977288 9.59182086,186.977288 C7.77849945,186.977288 4.82609809,191.459174 4.82609809,194.212732 C4.82609809,196.967737 4.48175657,199.2 6.29462668,199.2 C8.10704549,199.2 11.3888955,196.967737 11.3888955,194.212732 C11.3888955,193.24103 11.3884442,192.054734 11.3108207,190.926305 C11.5892725,190.719427 11.8451593,190.483132 12.0604292,190.209705 C12.2287639,190.408868 12.4377155,190.629731 12.689992,190.855417 C12.6110146,191.992043 12.6110146,193.18702 12.6110146,194.165956 C12.6110146,196.920478 15.8928646,199.154188 17.706186,199.154188 C19.5163483,199.154188 19.1742633,196.920478 19.1742633,194.165956 Z" id="Combined-Shape" fill="#858B99"></path>
            </g>
        </g>
    </g>
</svg>

<svg width="400" height="532" viewBox="0 0 400 532" xmlns="http://www.w3.org/2000/svg" xmlns:xlink="http://www.w3.org/1999/xlink"><title>recommended</title><defs><filter x="-50%" y="-50%" width="200%" height="200%" filterUnits="objectBoundingBox" id="d"><feGaussianBlur stdDeviation="20" in="SourceGraphic"/></filter><path id="a" d="M180 96h168v36H180z"/><mask id="e" x="0" y="0" width="168" height="36" fill="#fff"><use xlink:href="#a"/></mask><filter x="-50%" y="-50%" width="200%" height="200%" filterUnits="objectBoundingBox" id="f"><feGaussianBlur stdDeviation="20" in="SourceGraphic"/></filter><path id="b" d="M180 252h168v36H180z"/><mask id="g" x="0" y="0" width="168" height="36" fill="#fff"><use xlink:href="#b"/></mask><filter x="-50%" y="-50%" width="200%" height="200%" filterUnits="objectBoundingBox" id="h"><feGaussianBlur stdDeviation="20" in="SourceGraphic"/></filter><path id="c" d="M180 408h168v36H180z"/><mask id="i" x="0" y="0" width="168" height="36" fill="#fff"><use xlink:href="#c"/></mask></defs><g transform="translate(20 32)" fill="none" fill-rule="evenodd"><rect fill-opacity=".2" fill="#446691" filter="url(#d)" x="24" y="12" width="312" height="132" rx="24"/><rect fill="#FFF" x="12" width="336" height="96" rx="6"/><text font-family="Europa-Bold, Europa" font-size="18" font-weight="bold" fill="#535B6F"><tspan x="36" y="31">Echocardiography</tspan></text><text font-family="Europa-Regular, Europa" font-size="18" fill="#858B99"><tspan x="36" y="55">Your blood pressure has been pretty </tspan> <tspan x="36" y="79">high lately. How about you…</tspan></text><path fill="#FFA69E" d="M12 96h168v36H12z"/><use stroke="#FFA69E" mask="url(#e)" stroke-width="4" fill="#FFF" xlink:href="#a"/><text font-family="Europa-Regular, Europa" font-size="18" fill="#FFF"><tspan x="68.595" y="121">Accept</tspan></text><text font-family="Europa-Regular, Europa" font-size="18" fill="#FFA69E"><tspan x="239" y="121">Ignore</tspan></text><path d="M12 48c6.627 0 12-5.373 12-12s-5.373-12-12-12S0 29.373 0 36s5.373 12 12 12zm0-15.933c-1.836-3.438-7-2.434-7 1.873 0 2.967 3.25 6 7 10.06 3.75-4.06 7-7.093 7-10.06 0-4.322-5.177-5.285-7-1.873z" fill="#858B99"/><path d="M12 32.067c-1.836-3.438-7-2.434-7 1.873 0 2.967 3.25 6 7 10.06 3.75-4.06 7-7.093 7-10.06 0-4.322-5.177-5.285-7-1.873z" fill="#FFF"/><rect fill-opacity=".2" fill="#446691" filter="url(#f)" x="24" y="168" width="312" height="132" rx="24"/><rect fill="#FFF" x="12" y="156" width="336" height="96" rx="6"/><text font-family="Europa-Bold, Europa" font-size="18" font-weight="bold" fill="#535B6F"><tspan x="36" y="187">Pulmonary Function Test</tspan></text><text font-family="Europa-Regular, Europa" font-size="18" fill="#858B99"><tspan x="36" y="211">Seeing as you are a smoker, you </tspan> <tspan x="36" y="235">should get your lungs checked.</tspan></text><path fill="#FFA69E" d="M12 252h168v36H12z"/><use stroke="#FFA69E" mask="url(#g)" stroke-width="4" fill="#FFF" xlink:href="#b"/><text font-family="Europa-Regular, Europa" font-size="18" fill="#FFF"><tspan x="68.595" y="277">Accept</tspan></text><text font-family="Europa-Regular, Europa" font-size="18" fill="#FFA69E"><tspan x="239" y="277">Ignore</tspan></text><rect fill-opacity=".2" fill="#446691" filter="url(#h)" x="24" y="324" width="312" height="132" rx="24"/><rect fill="#FFF" x="12" y="312" width="336" height="96" rx="6"/><text font-family="Europa-Bold, Europa" font-size="18" font-weight="bold" fill="#535B6F"><tspan x="36" y="343">Dental Appointment</tspan></text><text font-family="Europa-Regular, Europa" font-size="18" fill="#858B99"><tspan x="36" y="367">It’s been a while since you’ve gone to </tspan> <tspan x="36" y="391">the dentist. I would advise you…</tspan></text><path fill="#FFA69E" d="M12 408h168v36H12z"/><use stroke="#FFA69E" mask="url(#i)" stroke-width="4" fill="#FFF" xlink:href="#c"/><text font-family="Europa-Regular, Europa" font-size="18" fill="#FFF"><tspan x="68.595" y="433">Accept</tspan></text><text font-family="Europa-Regular, Europa" font-size="18" fill="#FFA69E"><tspan x="239" y="433">Ignore</tspan></text><path d="M12 360c6.627 0 12-5.373 12-12s-5.373-12-12-12-12 5.373-12 12 5.373 12 12 12zm4.665-12.786s-.498 1.042-.498 2.683c0 1.219-.455 3.813-1.019 4.966-.26.51-1.018.421-1.191-.132-.542-1.93-.932-6.763-1.951-6.741-1.04-.022-1.409 4.811-1.95 6.74-.173.554-.932.643-1.192.133-.585-1.153-1.04-3.747-1.04-4.966 0-1.64-.498-2.683-.498-2.683-.694-1.463-.759-3.06-.716-4.057.044-.577.347-1.286.63-1.618.28-.333.801-.643 1.147-.71a7.233 7.233 0 0 1 1.669.044l1.95.266 1.95-.266a7.047 7.047 0 0 1 1.648-.044c.368.067.888.377 1.17.71.281.332.585 1.041.607 1.618.064.998 0 2.594-.716 4.057zM12 204c6.627 0 12-5.373 12-12s-5.373-12-12-12-12 5.373-12 12 5.373 12 12 12zm7.174-9.834c0-2.755-2.95-7.236-4.763-7.236-.865 0-1.321 1.026-1.555 2.393-.14-.171-.223-.303-.298-.395v-3.512c0-.34-.24-.616-.559-.616-.318 0-.56.276-.56.616v3.591c-.074.16-.167.307-.283.447-.23-1.41-.682-2.477-1.564-2.477-1.814 0-4.766 4.482-4.766 7.236 0 2.755-.344 4.987 1.469 4.987 1.812 0 5.094-2.232 5.094-4.987 0-.972 0-2.158-.078-3.287.278-.207.534-.443.75-.716.168.199.377.42.629.645-.079 1.137-.079 2.332-.079 3.311 0 2.754 3.282 4.988 5.095 4.988 1.81 0 1.468-2.234 1.468-4.988z" fill="#858B99"/></g></svg>
